client/public/images/clock.svg

<svg height="15" viewBox="0 0 15 15" width="15" xmlns="http://www.w3.org/2000/svg"><path d="m7.5 0c-1.92271076.00548414-3.76988229.74918547-5.16 2.0775v-1.3275c0-.41421356-.33578644-.75-.75-.75s-.75.33578644-.75.75v3.375c0 .41421356.33578644.75.75.75h3.375c.41421356 0 .75-.33578644.75-.75s-.33578644-.75-.75-.75h-1.8c1.98913243-2.07864814 5.17377207-2.45277356 7.5904902-.89171638 2.4167181 1.56105717 3.3851892 4.61784686 2.3083209 7.28576376-1.0768683 2.66791692-3.8959289 4.19592112-6.71914387 3.64195072-2.82321496-.5539704-4.85582669-3.0339681-4.84466723-5.9109981 0-.41421356-.33578644-.75-.75-.75s-.75.33578644-.75.75c0 4.1421356 3.35786438 7.5 7.5 7.5 4.1421356 0 7.5-3.3578644 7.5-7.5 0-4.14213562-3.3578644-7.5-7.5-7.5zm0 4.5c-.41421356 0-.75.33578644-.75.75v2.25c0 .41421356.33578644.75.75.75h1.5c.41421356 0 .75-.33578644.75-.75s-.33578644-.75-.75-.75h-.75v-1.5c0-.41421356-.33578644-.75-.75-.75z" fill="#fff"/></svg>

<?xml version="1.0" encoding="UTF-8"?>
<svg width="15px" height="15px" viewBox="0 0 15 15" version="1.1" xmlns="http://www.w3.org/2000/svg" xmlns:xlink="http://www.w3.org/1999/xlink">
    <title>clock</title>
    <g id="Page-1" stroke="none" stroke-width="1" fill="none" fill-rule="evenodd">
        <g id="Home-account-menu" transform="translate(-270.000000, -586.000000)" fill="#FFFFFF" fill-rule="nonzero">
            <g id="clock" transform="translate(270.000000, 586.000000)">
                <path d="M7.5,-3.33066907e-16 C5.57728924,0.00548414457 3.73011771,0.749185472 2.34,2.0775 L2.34,0.75 C2.34,0.335786438 2.00421356,-3.33066907e-16 1.59,-3.33066907e-16 C1.17578644,-3.33066907e-16 0.84,0.335786438 0.84,0.75 L0.84,4.125 C0.84,4.53921356 1.17578644,4.875 1.59,4.875 L4.965,4.875 C5.37921356,4.875 5.715,4.53921356 5.715,4.125 C5.715,3.71078644 5.37921356,3.375 4.965,3.375 L3.165,3.375 C5.15413243,1.29635186 8.33877207,0.922226441 10.7554902,2.48328362 C13.1722083,4.04434079 14.1406794,7.10113048 13.0638111,9.76904738 C11.9869428,12.4369643 9.1678822,13.9649685 6.34466723,13.4109981 C3.52145227,12.8570277 1.48884054,10.37703 1.5,7.5 C1.5,7.08578644 1.16421356,6.75 0.75,6.75 C0.335786438,6.75 6.66133815e-16,7.08578644 6.66133815e-16,7.5 C6.66133815e-16,11.6421356 3.35786438,15 7.5,15 C11.6421356,15 15,11.6421356 15,7.5 C15,3.35786438 11.6421356,-3.33066907e-16 7.5,-3.33066907e-16 Z M7.5,4.5 C7.08578644,4.5 6.75,4.83578644 6.75,5.25 L6.75,7.5 C6.75,7.91421356 7.08578644,8.25 7.5,8.25 L9,8.25 C9.41421356,8.25 9.75,7.91421356 9.75,7.5 C9.75,7.08578644 9.41421356,6.75 9,6.75 L8.25,6.75 L8.25,5.25 C8.25,4.83578644 7.91421356,4.5 7.5,4.5 Z" id="Shape"></path>
            </g>
        </g>
    </g>
</svg>
